X: 31
T:Jaque Latin
% Nottingham Music Database
S:Via Mike Richardson, via PR
M:2/4
L:1/4
K:G
"G"G/4A/4B/4c/4 d/2g/2|d/2B/2 B/2g/2|"G"d/2B/2 B/2g/2|d B|\
"G"G/4A/4B/4c/4 d/2g/2|d/2B/2 B/2g/2|"F"=f/2A/2 A/2B/2|c A::
"G"G/4A/4B/4c/4 d/2B/2|"C"e/2d/4c/4 "G"d/2B/2|"G"G/4A/4B/4c/4 d/2B/2|d B|\
"G"G/4A/4B/4c/4 d/2B/2|"C"e/2d/4c/4 d/2e/2|"F"=f/2A/2 A/2B/2|c A::
"G"g/2d/2 B/4c/4d/4B/4|g/2d/2 B/4c/4d/4B/4|"G"g/2d/2 B/4c/4d/4B/4|g d|
"G"g/2d/2 B/4c/4d/4B/4|g/2d/2 B/4c/4d/4B/4|"D"a/4d/4A/2 A/2B/2|"D7"c A:|<end>
<start>
